N&B/n&b Nick Brandt LR4.lrtemplate
s = {
	id = "E1088BAC-1F8C-49B6-93B5-9599E07649C5",
	internalName = "n&b Nick Brandt LR4",
	title = "n&b Nick Brandt LR4",
	type = "Develop",
	value = {
		settings = {
			Blacks2012 = -11,
			Clarity2012 = 50,
			Contrast2012 = 64,
			ConvertToGrayscale = false,
			EnableColorAdjustments = true,
			EnableDetail = true,
			EnableEffects = true,
			EnableSplitToning = true,
			Highlights2012 = -14,
			HueAdjustmentAqua = 0,
			HueAdjustmentBlue = 0,
			HueAdjustmentGreen = 0,
			HueAdjustmentMagenta = 0,
			HueAdjustmentOrange = 0,
			HueAdjustmentPurple = 0,
			HueAdjustmentRed = 0,
			HueAdjustmentYellow = 0,
			LuminanceAdjustmentAqua = 0,
			LuminanceAdjustmentBlue = 0,
			LuminanceAdjustmentGreen = 0,
			LuminanceAdjustmentMagenta = 0,
			LuminanceAdjustmentOrange = 0,
			LuminanceAdjustmentPurple = 0,
			LuminanceAdjustmentRed = 0,
			LuminanceAdjustmentYellow = 0,
			ParametricDarks = -11,
			ParametricHighlightSplit = 75,
			ParametricHighlights = 0,
			ParametricLights = 16,
			ParametricMidtoneSplit = 50,
			ParametricShadowSplit = 25,
			ParametricShadows = 0,
			PostCropVignetteAmount = -34,
			PostCropVignetteFeather = 76,
			PostCropVignetteHighlightContrast = 0,
			PostCropVignetteMidpoint = 22,
			PostCropVignetteRoundness = 17,
			PostCropVignetteStyle = 1,
			ProcessVersion = "6.7",
			SaturationAdjustmentAqua = -100,
			SaturationAdjustmentBlue = -100,
			SaturationAdjustmentGreen = -100,
			SaturationAdjustmentMagenta = -100,
			SaturationAdjustmentOrange = -100,
			SaturationAdjustmentPurple = -100,
			SaturationAdjustmentRed = -100,
			SaturationAdjustmentYellow = -100,
			Shadows2012 = 14,
			SharpenDetail = 100,
			SharpenEdgeMasking = 53,
			SharpenRadius = 0.7,
			Sharpness = 43,
			SplitToningBalance = 13,
			SplitToningHighlightHue = 43,
			SplitToningHighlightSaturation = 19,
			SplitToningShadowHue = 37,
			SplitToningShadowSaturation = 15,
			ToneCurveName2012 = "Strong Contrast",
			ToneCurvePV2012 = {
				0,
				0,
				32,
				16,
				64,
				50,
				128,
				128,
				192,
				202,
				255,
				255,
			},
			ToneCurvePV2012Blue = {
				0,
				0,
				255,
				255,
			},
			ToneCurvePV2012Green = {
				0,
				0,
				255,
				255,
			},
			ToneCurvePV2012Red = {
				0,
				0,
				255,
				255,
			},
			Vibrance = 44,
			Whites2012 = -53,
		},
		uuid = "021FEAFF-3FFF-4545-9D56-A3930E419BBE",
	},
	version = 0,
}
