Greg/n&b Edward Weston LR4.lrtemplate
s = {
	id = "D3CEBB21-9A2A-43F2-9A1E-61DD5D69A581",
	internalName = "n&b Edward Weston LR4",
	title = "n&b Edward Weston LR4",
	type = "Develop",
	value = {
		settings = {
			Blacks2012 = -17,
			Clarity2012 = 0,
			Contrast2012 = -25,
			ConvertToGrayscale = false,
			EnableColorAdjustments = true,
			EnableEffects = true,
			EnableSplitToning = true,
			GrainAmount = 10,
			GrainFrequency = 50,
			GrainSize = 50,
			Highlights2012 = 15,
			HueAdjustmentAqua = 0,
			HueAdjustmentBlue = 0,
			HueAdjustmentGreen = 0,
			HueAdjustmentMagenta = 0,
			HueAdjustmentOrange = 3,
			HueAdjustmentPurple = 0,
			HueAdjustmentRed = 0,
			HueAdjustmentYellow = 0,
			LuminanceAdjustmentAqua = -77,
			LuminanceAdjustmentBlue = -100,
			LuminanceAdjustmentGreen = 38,
			LuminanceAdjustmentMagenta = 0,
			LuminanceAdjustmentOrange = 32,
			LuminanceAdjustmentPurple = -62,
			LuminanceAdjustmentRed = -15,
			LuminanceAdjustmentYellow = -17,
			ParametricDarks = 0,
			ParametricHighlightSplit = 75,
			ParametricHighlights = 0,
			ParametricLights = 0,
			ParametricMidtoneSplit = 50,
			ParametricShadowSplit = 25,
			ParametricShadows = 0,
			ProcessVersion = "6.7",
			SaturationAdjustmentAqua = -100,
			SaturationAdjustmentBlue = -100,
			SaturationAdjustmentGreen = -100,
			SaturationAdjustmentMagenta = -100,
			SaturationAdjustmentOrange = -100,
			SaturationAdjustmentPurple = -100,
			SaturationAdjustmentRed = -100,
			SaturationAdjustmentYellow = -100,
			Shadows2012 = 15,
			SplitToningBalance = 0,
			SplitToningHighlightHue = 50,
			SplitToningHighlightSaturation = 12,
			SplitToningShadowHue = 45,
			SplitToningShadowSaturation = 18,
			ToneCurveName2012 = "Linear",
			ToneCurvePV2012 = {
				0,
				0,
				255,
				255,
			},
			ToneCurvePV2012Blue = {
				0,
				0,
				255,
				255,
			},
			ToneCurvePV2012Green = {
				0,
				0,
				255,
				255,
			},
			ToneCurvePV2012Red = {
				0,
				0,
				255,
				255,
			},
			Vibrance = -37,
			Whites2012 = 15,
		},
		uuid = "DA59EEB2-A7C9-4786-8D7E-E535268D23A4",
	},
	version = 0,
}
