Preset from Web/2. Semi Auto-WB.lrtemplate
s = {
	id = "37251DA5-7F11-4E8E-975E-0EB2CF76627F",
	internalName = "2. Semi Auto-WB",
	title = "2. Semi Auto-WB",
	type = "Develop",
	value = {
		settings = {
			AutoBrightness = true,
			AutoContrast = true,
			AutoExposure = false,
			AutoShadows = true,
			ChromaticAberrationB = 0,
			ChromaticAberrationR = 0,
			Clarity = 85,
			ColorNoiseReduction = 65,
			Contrast = 16,
			ConvertToGrayscale = false,
			Defringe = 0,
			EnableColorAdjustments = false,
			EnableDetail = true,
			EnableGrayscaleMix = true,
			EnableLensCorrections = true,
			EnableSplitToning = true,
			Exposure = 0.35,
			FillLight = 5,
			HighlightRecovery = 15,
			HueAdjustmentAqua = 0,
			HueAdjustmentBlue = 0,
			HueAdjustmentGreen = 0,
			HueAdjustmentMagenta = 0,
			HueAdjustmentOrange = 0,
			HueAdjustmentPurple = 0,
			HueAdjustmentRed = 0,
			HueAdjustmentYellow = 0,
			LuminanceAdjustmentAqua = 0,
			LuminanceAdjustmentBlue = 0,
			LuminanceAdjustmentGreen = 0,
			LuminanceAdjustmentMagenta = 0,
			LuminanceAdjustmentOrange = 0,
			LuminanceAdjustmentPurple = 0,
			LuminanceAdjustmentRed = 0,
			LuminanceAdjustmentYellow = 0,
			LuminanceSmoothing = 20,
			ParametricDarks = 11,
			ParametricHighlightSplit = 75,
			ParametricHighlights = -13,
			ParametricLights = -13,
			ParametricMidtoneSplit = 50,
			ParametricShadowSplit = 25,
			ParametricShadows = -6,
			Saturation = 6,
			SaturationAdjustmentAqua = 0,
			SaturationAdjustmentBlue = 0,
			SaturationAdjustmentGreen = 0,
			SaturationAdjustmentMagenta = 0,
			SaturationAdjustmentOrange = 0,
			SaturationAdjustmentPurple = 0,
			SaturationAdjustmentRed = 0,
			SaturationAdjustmentYellow = 0,
			Shadows = 1,
			SharpenDetail = 40,
			SharpenEdgeMasking = 0,
			SharpenRadius = 1.5,
			Sharpness = 30,
			SplitToningBalance = 0,
			SplitToningHighlightHue = 0,
			SplitToningHighlightSaturation = 0,
			SplitToningShadowHue = 0,
			SplitToningShadowSaturation = 0,
			ToneCurve = {
				0,
				0,
				32,
				16,
				64,
				50,
				128,
				128,
				192,
				202,
				255,
				255,
			},
			ToneCurveName = "Strong Contrast",
			Vibrance = 15,
			VignetteAmount = -55,
			VignetteMidpoint = 0,
			WhiteBalance = "Auto",
		},
		uuid = "8837F891-48B1-43E9-B71B-3071F407F450",
	},
	version = 0,
}
