Preset from Web/Polapan.lrtemplate
s = {
	id = "82F9BF4E-750B-4059-9058-20F0AA481126",
	internalName = "Polapan",
	title = "Polapan",
	type = "Develop",
	value = {
		settings = {
			AutoBrightness = false,
			AutoContrast = false,
			AutoExposure = false,
			AutoShadows = false,
			Brightness = 46,
			Clarity = 34,
			Contrast = 34,
			ConvertToGrayscale = false,
			EnableColorAdjustments = true,
			EnableDetail = true,
			EnableGrayscaleMix = true,
			EnableSplitToning = true,
			Exposure = 0,
			FillLight = 9,
			HighlightRecovery = 0,
			HueAdjustmentAqua = 0,
			HueAdjustmentBlue = 0,
			HueAdjustmentGreen = 0,
			HueAdjustmentMagenta = 0,
			HueAdjustmentOrange = 0,
			HueAdjustmentPurple = 0,
			HueAdjustmentRed = 0,
			HueAdjustmentYellow = 0,
			LuminanceAdjustmentAqua = 0,
			LuminanceAdjustmentBlue = 0,
			LuminanceAdjustmentGreen = 0,
			LuminanceAdjustmentMagenta = 0,
			LuminanceAdjustmentOrange = 0,
			LuminanceAdjustmentPurple = 0,
			LuminanceAdjustmentRed = 0,
			LuminanceAdjustmentYellow = 0,
			ParametricDarks = -25,
			ParametricHighlightSplit = 67,
			ParametricHighlights = -21,
			ParametricLights = 61,
			ParametricMidtoneSplit = 51,
			ParametricShadowSplit = 31,
			ParametricShadows = 42,
			Saturation = 0,
			SaturationAdjustmentAqua = -100,
			SaturationAdjustmentBlue = -68,
			SaturationAdjustmentGreen = -100,
			SaturationAdjustmentMagenta = -100,
			SaturationAdjustmentOrange = -100,
			SaturationAdjustmentPurple = -100,
			SaturationAdjustmentRed = -100,
			SaturationAdjustmentYellow = -100,
			Shadows = 50,
			SharpenDetail = 70,
			SharpenEdgeMasking = 0,
			SharpenRadius = 0.8,
			Sharpness = 76,
			SplitToningBalance = 0,
			SplitToningHighlightHue = 222,
			SplitToningHighlightSaturation = 56,
			SplitToningShadowHue = 0,
			SplitToningShadowSaturation = 0,
			ToneCurve = {
				0,
				0,
				255,
				255,
			},
			ToneCurveName = "Medium Contrast",
			Vibrance = 68,
		},
		uuid = "D4991916-797D-4A35-808E-877D94E67B9B",
	},
	version = 0,
}
