Preset from Web/Polaroid.lrtemplate
s = {
	id = "FE89490E-EC52-4D17-86B6-0F3221C62871",
	internalName = "Polaroid",
	title = "Polaroid",
	type = "Develop",
	value = {
		settings = {
			AutoBrightness = false,
			AutoContrast = false,
			AutoShadows = false,
			Brightness = 50,
			ColorNoiseReduction = 71,
			Contrast = -10,
			ConvertToGrayscale = false,
			EnableColorAdjustments = true,
			EnableDetail = true,
			EnableGrayscaleMix = true,
			EnableSplitToning = true,
			HueAdjustmentAqua = 0,
			HueAdjustmentBlue = 0,
			HueAdjustmentGreen = 0,
			HueAdjustmentMagenta = 0,
			HueAdjustmentOrange = 0,
			HueAdjustmentPurple = 0,
			HueAdjustmentRed = -13,
			HueAdjustmentYellow = 0,
			LuminanceAdjustmentAqua = 0,
			LuminanceAdjustmentBlue = 0,
			LuminanceAdjustmentGreen = 0,
			LuminanceAdjustmentMagenta = 0,
			LuminanceAdjustmentOrange = 0,
			LuminanceAdjustmentPurple = 0,
			LuminanceAdjustmentRed = 0,
			LuminanceAdjustmentYellow = 0,
			LuminanceSmoothing = 96,
			ParametricDarks = 21,
			ParametricHighlightSplit = 76,
			ParametricHighlights = 0,
			ParametricLights = -29,
			ParametricMidtoneSplit = 50,
			ParametricShadowSplit = 25,
			ParametricShadows = 0,
			Saturation = -21,
			SaturationAdjustmentAqua = 1,
			SaturationAdjustmentBlue = 0,
			SaturationAdjustmentGreen = 0,
			SaturationAdjustmentMagenta = 0,
			SaturationAdjustmentOrange = 0,
			SaturationAdjustmentPurple = 0,
			SaturationAdjustmentRed = 14,
			SaturationAdjustmentYellow = 0,
			Shadows = 5,
			SharpenDetail = 25,
			SharpenEdgeMasking = 0,
			SharpenRadius = 1,
			Sharpness = 7,
			SplitToningBalance = -58,
			SplitToningHighlightHue = 104,
			SplitToningHighlightSaturation = 44,
			SplitToningShadowHue = 201,
			SplitToningShadowSaturation = 36,
			Temperature = 4850,
			Tint = 3,
			ToneCurve = {
				0,
				0,
				32,
				22,
				64,
				56,
				128,
				128,
				192,
				196,
				255,
				255,
			},
			ToneCurveName = "Medium Contrast",
			Vibrance = 0,
			WhiteBalance = "Custom",
		},
		uuid = "DF2D18F6-79C0-43EE-A0F6-FCD69F4D527D",
	},
	version = 0,
}
