Preset from Web/Pseudo HDR.lrtemplate
s = {
	id = "A2413E42-2CE1-4943-8C52-91062ACABE70",
	internalName = "Pseudo HDR",
	title = "Pseudo HDR",
	type = "Develop",
	value = {
		settings = {
			AutoBrightness = false,
			AutoContrast = false,
			AutoShadows = false,
			Brightness = 47,
			Clarity = 53,
			ColorNoiseReduction = 25,
			Contrast = 47,
			ConvertToGrayscale = false,
			EnableDetail = true,
			EnableGrayscaleMix = true,
			FillLight = 55,
			HighlightRecovery = 93,
			LuminanceSmoothing = 14,
			ParametricDarks = -35,
			ParametricHighlightSplit = 67,
			ParametricHighlights = -21,
			ParametricLights = -71,
			ParametricMidtoneSplit = 45,
			ParametricShadowSplit = 31,
			ParametricShadows = 100,
			Saturation = 0,
			Shadows = 45,
			SharpenDetail = 70,
			SharpenEdgeMasking = 0,
			SharpenRadius = 0.8,
			Sharpness = 76,
			ToneCurve = {
				0,
				0,
				32,
				22,
				64,
				56,
				128,
				128,
				192,
				196,
				255,
				255,
			},
			ToneCurveName = "Medium Contrast",
			Vibrance = 14,
		},
		uuid = "2057FA29-C0F5-4904-8D77-F18E04F165B2",
	},
	version = 0,
}
